static/media/3ds-max.76ab52c8.svg

<?xml version="1.0" encoding="UTF-8"?>
<svg xmlns="http://www.w3.org/2000/svg" xmlns:xlink="http://www.w3.org/1999/xlink" viewBox="0 0 48 48" version="1.1" width="48px" height="48px">
<g id="surface1">
<path style=" fill:#004D40;" d="M 19.53125 17.3125 L 41 24 L 19.53125 9.757813 Z "/>
<path style=" fill:#26A69A;" d="M 30.316406 4 L 11.617188 4 L 7 12 L 21 12 Z "/>
<path style=" fill:#00897B;" d="M 41 24 L 30.316406 4 L 21 12 Z "/>
<path style=" fill:#004D40;" d="M 19.824219 38.066406 L 41 24 L 19.824219 29.628906 Z "/>
<path style=" fill:#00897B;" d="M 21 31.097656 L 41 24 L 20.996094 16.925781 L 17.261719 24 Z "/>
<path style=" fill:#26A69A;" d="M 21 16.925781 L 17.09375 15.558594 L 8.054688 24 L 17.09375 32.460938 L 21 31.097656 Z "/>
<path style=" fill:#26A69A;" d="M 21 36.019531 L 7 36.019531 L 11.617188 44 L 30.316406 44 L 21.015625 36.011719 Z "/>
<path style=" fill:#00796B;" d="M 7 12 L 18.183594 15.941406 L 21 12 Z "/>
<path style=" fill:#00897B;" d="M 21.015625 36.011719 L 30.316406 44 L 41 24 Z "/>
<path style=" fill:#00796B;" d="M 21 36 L 18.269531 32.050781 L 7 36.019531 L 21 36.019531 Z "/>
<path style=" fill:#00695C;" d="M 21 31.097656 L 17.09375 32.460938 L 21 36 Z "/>
<path style=" fill:#00695C;" d="M 21 12 L 17.09375 15.558594 L 21 16.925781 Z "/>
</g>
</svg>

<svg xmlns="http://www.w3.org/2000/svg" width="48" height="48"><path d="M19.531 17.313L41 24 19.531 9.758z" fill="#004d40"/><path d="M30.316 4H11.617L7 12h14z" fill="#26a69a"/><path d="M41 24L30.316 4 21 12z" fill="#00897b"/><path d="M19.824 38.066L41 24l-21.176 5.629z" fill="#004d40"/><path d="M21 31.098L41 24l-20.004-7.074L17.262 24z" fill="#00897b"/><path d="M21 16.926l-3.906-1.367L8.054 24l9.04 8.46L21 31.099zm0 19.094H7L11.617 44h18.7l-9.301-7.988z" fill="#26a69a"/><path d="M7 12l11.184 3.941L21 12z" fill="#00796b"/><path d="M21.016 36.012l9.3 7.988L41 24z" fill="#00897b"/><path d="M21 36l-2.73-3.95L7 36.02h14z" fill="#00796b"/><path d="M21 31.098l-3.906 1.363L21 36zM21 12l-3.906 3.559L21 16.926z" fill="#00695c"/></svg>
